X: 17100
T: Heel And Toe, The
R: polka
M: 2/4
K: Dmajor
FG AA|BA f2|f>e gB|ed c/B/A|
FG AA/c/|BA f2|f>e gB|1 ed d2:|2 ed dB/=c/||
K:G
dg B/c/d/B/|GA B2|c/B/A/B/ cd|ed B/c/B/c/|
dg B/c/d/B/|GA B2|c/B/A/B/ cE|1 AG GB/c/:|2 AG G2||

